packages/core/src/svgs/tokens/mono/UPP.svg

<svg width="24" height="24" viewBox="0 0 24 24" fill="none" xmlns="http://www.w3.org/2000/svg">
<path d="M19.1445 12.9167L16.4223 17.6167C16.5334 17.8389 16.55 18.0778 16.4777 18.3277C16.4228 18.509 16.318 18.6713 16.1753 18.7959C16.0327 18.9206 15.8579 19.0027 15.6708 19.0329C15.4837 19.0629 15.292 19.0399 15.1174 18.9662C14.9428 18.8927 14.7924 18.7715 14.6833 18.6166H9.37777C9.23213 18.8134 9.02007 18.9506 8.78094 19.0028C8.54181 19.055 8.29185 19.0187 8.07744 18.9007C7.86302 18.7827 7.69872 18.5908 7.615 18.3607C7.53129 18.1308 7.53385 17.8783 7.62222 17.65L4.88889 12.9277C4.64534 12.8967 4.4214 12.7781 4.25885 12.5942C4.09632 12.4101 4.00628 12.1733 4.00556 11.9277C4.00556 11.3889 4.42777 10.9444 4.96111 10.9166L7.61111 6.33886C7.53073 6.11258 7.53305 5.86517 7.61763 5.64043C7.70222 5.4157 7.86362 5.22816 8.07324 5.11103C8.28287 4.99391 8.52718 4.95477 8.7629 5.00054C8.99863 5.0463 9.21055 5.17402 9.36111 5.36108H14.6944C14.8425 5.1622 15.0586 5.02466 15.3014 4.97461C15.5442 4.92456 15.7969 4.96549 16.0116 5.08961C16.2263 5.21374 16.3878 5.4124 16.4656 5.64784C16.5433 5.88329 16.5318 6.13909 16.4333 6.36664L19.0667 10.9222C19.198 10.917 19.3291 10.9379 19.4524 10.9834C19.5756 11.0289 19.6887 11.0984 19.7851 11.1876C19.8816 11.2769 19.9596 11.3842 20.0146 11.5036C20.0695 11.623 20.1004 11.752 20.1056 11.8833C20.1106 12.0146 20.0899 12.1457 20.0442 12.2689C19.9987 12.3922 19.9294 12.5054 19.8402 12.6018C19.7509 12.6983 19.6436 12.7762 19.5242 12.8311C19.4048 12.8861 19.2758 12.9171 19.1445 12.9221V12.9167ZM21.7555 11.0722L17.6777 4.03886C17.515 3.75698 17.2811 3.52288 16.9992 3.36002C16.7174 3.19718 16.3976 3.11133 16.0723 3.11108H7.92777C7.26111 3.11108 6.65 3.46663 6.31666 4.03886L2.25 11.0722C1.91667 11.65 1.91667 12.35 2.25 12.9221L6.32222 19.961C6.48496 20.243 6.71898 20.4771 7.00079 20.6399C7.28261 20.8027 7.6023 20.8887 7.92777 20.8889H16.0723C16.7388 20.8889 17.35 20.5389 17.6833 19.961L21.75 12.9221C22.0833 12.3555 22.0833 11.6444 21.75 11.0722H21.7555Z" fill="white"/>
<path d="M18.2559 11.2213L16.5448 8.26021L10.1614 11.838V11.8547C10.1352 12.1045 10.0174 12.3359 9.83061 12.504C9.64395 12.6721 9.40156 12.7652 9.1503 12.7652C8.89906 12.7652 8.65669 12.6721 8.46998 12.504C8.28326 12.3359 8.16543 12.1045 8.13919 11.8547C8.14093 11.6654 8.19574 11.4804 8.29741 11.3207C8.39906 11.1612 8.54348 11.0332 8.71424 10.9517C8.88499 10.87 9.07524 10.838 9.2633 10.8591C9.45132 10.8803 9.62969 10.9538 9.77811 11.0713L16.1114 7.52132L15.7781 6.94353C15.6471 6.98273 15.5094 6.99466 15.3737 6.97856C15.238 6.96247 15.1069 6.91871 14.9887 6.84998C14.8705 6.78125 14.7677 6.68902 14.6865 6.57897C14.6054 6.46895 14.5477 6.34343 14.517 6.21021H9.52806C9.49422 6.34306 9.43369 6.46769 9.35043 6.57659C9.26711 6.68549 9.16262 6.7764 9.04326 6.84387C8.92388 6.91135 8.7921 6.95397 8.65583 6.96919C8.51957 6.9844 8.38163 6.9719 8.25031 6.93242L5.75031 11.238C5.84103 11.3335 5.91201 11.4458 5.95917 11.5687C6.00635 11.6917 6.02876 11.8228 6.02514 11.9544C6.02153 12.0861 5.99196 12.2156 5.93812 12.3357C5.88429 12.4559 5.80725 12.5643 5.71143 12.6546L7.61698 15.9436L14.1448 12.1768L14.1392 12.0825C14.1654 11.8325 14.2833 11.6013 14.4699 11.4331C14.6567 11.2649 14.899 11.1719 15.1504 11.1719C15.4016 11.1719 15.644 11.2649 15.8306 11.4331C16.0173 11.6013 16.1351 11.8325 16.1615 12.0825C16.1621 12.2674 16.1119 12.4492 16.0164 12.6077C15.921 12.7662 15.7839 12.8955 15.62 12.9814C15.456 13.0674 15.2717 13.1067 15.0871 13.0951C14.9024 13.0836 14.7244 13.0215 14.5726 12.9157L8.0392 16.6825L8.26142 17.0602C8.39017 17.0213 8.52541 17.0088 8.65913 17.023C8.79284 17.0374 8.92232 17.0784 9.03991 17.1437C9.15749 17.2089 9.26079 17.2972 9.34369 17.4031C9.42656 17.5089 9.48735 17.6303 9.52248 17.7602H14.5226C14.594 17.5028 14.7643 17.2841 14.9965 17.1519C15.2286 17.0197 15.5036 16.9848 15.7614 17.0547L18.2948 12.6714C18.1943 12.581 18.1133 12.4713 18.0564 12.3488C17.9996 12.2263 17.9681 12.0936 17.964 11.9585C17.9598 11.8236 17.983 11.6892 18.0323 11.5634C18.0815 11.4377 18.1557 11.3232 18.2503 11.2269L18.2559 11.2213Z" fill="white"/>
</svg>

<svg xmlns="http://www.w3.org/2000/svg" width="24" height="24" fill="none" viewBox="0 0 24 24">
    <path fill="#fff" d="m19.145 12.917-2.723 4.7a.95.95 0 0 1 .056.71 1.01 1.01 0 0 1-1.795.29H9.378a1.01 1.01 0 0 1-1.756-.967L4.89 12.928a1.011 1.011 0 0 1 .072-2.011l2.65-4.578a1.017 1.017 0 0 1 1.75-.978h5.333a1.012 1.012 0 0 1 1.74 1.006l2.633 4.555a1 1 0 1 1 .078 2zm2.61-1.845L17.679 4.04a1.85 1.85 0 0 0-1.606-.928H7.928c-.667 0-1.278.356-1.611.928L2.25 11.072a1.84 1.84 0 0 0 0 1.85l4.072 7.039a1.85 1.85 0 0 0 1.606.928h8.144c.667 0 1.278-.35 1.611-.928l4.067-7.039a1.84 1.84 0 0 0 0-1.85z"/>
    <path fill="#fff" d="m18.256 11.221-1.711-2.96-6.384 3.577v.017a1.016 1.016 0 0 1-2.022 0 1.012 1.012 0 0 1 1.64-.784l6.332-3.55-.333-.577a1 1 0 0 1-1.261-.734H9.528a1.017 1.017 0 0 1-1.278.722l-2.5 4.306a1 1 0 0 1-.039 1.417l1.906 3.289 6.528-3.767-.006-.095a1.017 1.017 0 0 1 2.023 0 1.012 1.012 0 0 1-1.59.834L8.04 16.683l.222.377a1.007 1.007 0 0 1 1.261.7h5a1.01 1.01 0 0 1 1.24-.705l2.533-4.384a1 1 0 0 1-.045-1.444z"/>
</svg>
